X:1
T:Cosher Bailey's Engine
M:2/4
L:1/8
K:D
 z2 DF| AA AB| AA GF| EF GA| GG FE| DE FG| FF ED| AA AA| EG FE| D2 D2|\
 D2 GF| E2 E2| E2 FG| A2 d2| B2 AG| FF EE| D2 z2|
